X:52
T:Israhel es tu rex
C:Gilles Binchois
C:(1400 ? 1460)
M:3/4
L:1/8
K:Am
V:1
a4g2 | a2(ab)c'2 | c'2(bg)a2 | g2z2z2 | g2a4 |
c'2b3a | c'2d'2c'2 | c'2b2a2 | ^g2(ac')b2 | a6 | a2g2a2 | (ab)c'2z2 |
c'4c'2 | c'2(bg)a2 | g2z2z2 | g2a4 | c'2b3a | c'2d'4 | c'2b2a2 |
(^gc') ba2^g | a6 || a2a2g2 | (ab)c'4 | c'2(bg)a2 | g2z2z2 | g2a4 |
c'2b3a | c'2d'4 | c'2b2a2 | g2(ac')b2 | a6 | a4a2 | g2(ab)c'2 |
c'2(bg)a2 | g2z2z2 | g2a4 | c'2b3a | c'2d'4 | c'2b2a2 | (^gc') ba2g | Ha6 |]
V:2
d2A2_B2 | Ac2da2 | a2(ge) (^f/e/)f | g2z2z2 | e2f4 |
e2(gf)d2 | e2d2A2 | a2g2f2 | e2fa2^g | a6 | (dc)B2A2 | (dc)A2z2 |
a4a2 | a2gg2^f | g2z2z2 | e2f4 | e2(gf)d2 | e2d4 | a2g2f2 |
e2fa2^g | a6 || d2(cA)_B2 | A2a4 | a2gg (^f/e/)f | g2z2z2 | e2f4 |
e2(gf)d2 | e2d4 | a2g2f2 | e2fa2^g | a6 | d4c2 | B2A2a2 |
a2gg2^f | g2z2z2 | e2f4 | e2(gf)d2 | e2d4 | a2g2f2 | e2(dc)B2 | HA6 |]





